svg/filled/mixed.svg

<svg width="24" height="24" viewBox="0 0 24 24" fill="none" xmlns="http://www.w3.org/2000/svg">
<path fill-rule="evenodd" clip-rule="evenodd" d="M8.504 15.6995C7.33228 16.79 5.90995 17.5734 3.99079 17.5499C3.57661 17.5448 3.24497 17.2049 3.25006 16.7907C3.25514 16.3765 3.59503 16.0449 4.00921 16.05C5.44427 16.0676 6.5111 15.5051 7.48209 14.6015C8.26005 13.8775 8.93311 12.981 9.66903 12.0008C9.88983 11.7067 10.1163 11.4051 10.3529 11.0983C11.3471 9.80956 12.4919 8.47785 14.0426 7.58421C15.62 6.67511 17.558 6.2514 20.0796 6.65956C20.4885 6.72575 20.7663 7.11088 20.7001 7.51977C20.6339 7.92866 20.2488 8.20648 19.8399 8.14029C17.6298 7.78254 16.0455 8.16117 14.7915 8.88384C13.5107 9.62196 12.5149 10.7514 11.5406 12.0145C11.3358 12.28 11.13 12.5544 10.9218 12.8321C10.1715 13.8326 9.38958 14.8754 8.504 15.6995Z" fill="black"/>
<path fill-rule="evenodd" clip-rule="evenodd" d="M16.0394 3.46898C16.3327 3.17647 16.8076 3.17709 17.1001 3.47037L20.5311 6.91036C20.8231 7.20312 20.823 7.67696 20.531 7.96969L17.0993 11.4097C16.8068 11.7029 16.3319 11.7035 16.0387 11.411C15.7454 11.1184 15.7448 10.6436 16.0374 10.3503L18.9407 7.43995L16.038 4.52963C15.7455 4.23636 15.7461 3.76149 16.0394 3.46898Z" fill="black"/>
<path fill-rule="evenodd" clip-rule="evenodd" d="M16.0549 12.654C16.3564 12.37 16.8311 12.3843 17.1151 12.6858L20.5059 16.2858C20.7897 16.5871 20.7757 17.0614 20.4747 17.3455L17.0839 20.5455C16.7827 20.8297 16.308 20.816 16.0237 20.5148C15.7394 20.2135 15.7532 19.7389 16.0544 19.4546L18.9002 16.7688L16.0232 13.7142C15.7392 13.4127 15.7534 12.938 16.0549 12.654Z" fill="black"/>
<path fill-rule="evenodd" clip-rule="evenodd" d="M7.53082 9.39558C6.57321 8.48976 5.49482 7.92322 4.0135 7.94988C3.59935 7.95733 3.25758 7.62764 3.25012 7.2135C3.24267 6.79935 3.57236 6.45758 3.98651 6.45012C5.94895 6.41481 7.39013 7.19774 8.5616 8.30587C9.48333 9.17776 10.2716 10.2887 11.0217 11.3459C11.1922 11.5861 11.3606 11.8235 11.5282 12.0547C12.4636 13.345 13.4043 14.4961 14.6221 15.2551C15.8088 15.9947 17.3138 16.3942 19.4442 16.0591C19.8534 15.9948 20.2373 16.2743 20.3017 16.6835C20.366 17.0927 20.0865 17.4765 19.6773 17.5409C17.2181 17.9277 15.3441 17.4726 13.8287 16.5281C12.3445 15.6031 11.2602 14.2407 10.3137 12.9351C10.1239 12.6732 9.94042 12.4151 9.76067 12.1622C9.01575 11.1141 8.33477 10.1561 7.53082 9.39558Z" fill="black"/>
</svg>

<svg xmlns="http://www.w3.org/2000/svg" viewBox="0 0 24 24" fill="currentColor">
  <path fill-rule="evenodd" d="M8.504 15.7c-1.172 1.09-2.594 1.873-4.513 1.85a.75.75 0 01.018-1.5c1.435.018 2.502-.545 3.473-1.449.778-.724 1.451-1.62 2.187-2.6.22-.294.447-.596.684-.903.994-1.288 2.139-2.62 3.69-3.514 1.577-.909 3.515-1.333 6.037-.924a.75.75 0 11-.24 1.48c-2.21-.357-3.794.021-5.049.744-1.28.738-2.276 1.867-3.25 3.13-.205.266-.411.54-.62.818-.75 1-1.531 2.043-2.417 2.867z" clip-rule="evenodd"/>
  <path fill-rule="evenodd" d="M16.04 3.469a.75.75 0 011.06.001l3.431 3.44a.75.75 0 010 1.06l-3.432 3.44a.75.75 0 01-1.062-1.06l2.904-2.91-2.903-2.91a.75.75 0 01.001-1.061zM16.055 12.654a.75.75 0 011.06.032l3.39 3.6a.75.75 0 01-.03 1.06l-3.391 3.2a.75.75 0 01-1.03-1.091l2.846-2.686-2.877-3.055a.75.75 0 01.032-1.06z" clip-rule="evenodd"/>
  <path fill-rule="evenodd" d="M7.53 9.396C6.574 8.49 5.496 7.923 4.014 7.95a.75.75 0 01-.026-1.5c1.962-.035 3.403.748 4.575 1.856.921.872 1.71 1.983 2.46 3.04.17.24.339.477.506.709.936 1.29 1.876 2.441 3.094 3.2 1.187.74 2.692 1.14 4.822.804a.75.75 0 01.233 1.482c-2.459.387-4.333-.068-5.848-1.013-1.485-.925-2.569-2.287-3.515-3.593-.19-.262-.374-.52-.553-.773-.745-1.048-1.426-2.006-2.23-2.766z" clip-rule="evenodd"/>
</svg>
